assets/fc/fc-candle-sticks.svg

<svg xmlns="http://www.w3.org/2000/svg" width="100%" height="100%" viewBox="0 0 48 48"><g fill="#546E7A"><path d="M38 4h2v20h-2zM15 7h2v17h-2zM8 27h2v17H8zM28 19h2v22h-2z"/></g><path fill="#4CAF50" d="M36 7h6c1.1 0 2 .9 2 2v10c0 1.1-.9 2-2 2h-6c-1.1 0-2-.9-2-2V9c0-1.1.9-2 2-2zM13 10h6c1.1 0 2 .9 2 2v7c0 1.1-.9 2-2 2h-6c-1.1 0-2-.9-2-2v-7c0-1.1.9-2 2-2z"/><path fill="#F44336" d="M6 30h6c1.1 0 2 .9 2 2v7c0 1.1-.9 2-2 2H6c-1.1 0-2-.9-2-2v-7c0-1.1.9-2 2-2zM26 22h6c1.1 0 2 .9 2 2v12c0 1.1-.9 2-2 2h-6c-1.1 0-2-.9-2-2V24c0-1.1.9-2 2-2z"/></svg>

<svg xmlns="http://www.w3.org/2000/svg" width="100%" height="100%" viewBox="0 0 48 48"><g fill="#546E7A"><path d="M38 4H40V24H38zM15 7H17V24H15zM8 27H10V44H8zM28 19H30V41H28z"/></g><path fill="#4CAF50" d="M36 7h6c1.1 0 2 .9 2 2v10c0 1.1-.9 2-2 2h-6c-1.1 0-2-.9-2-2V9C34 7.9 34.9 7 36 7zM13 10h6c1.1 0 2 .9 2 2v7c0 1.1-.9 2-2 2h-6c-1.1 0-2-.9-2-2v-7C11 10.9 11.9 10 13 10z"/><path fill="#F44336" d="M6 30h6c1.1 0 2 .9 2 2v7c0 1.1-.9 2-2 2H6c-1.1 0-2-.9-2-2v-7C4 30.9 4.9 30 6 30zM26 22h6c1.1 0 2 .9 2 2v12c0 1.1-.9 2-2 2h-6c-1.1 0-2-.9-2-2V24C24 22.9 24.9 22 26 22z"/></svg>
